!!!COM: Music21
!!!OTL: A Mariñana
!!!OMV: pezas_foliadas_a-marinana_a-marinana-partitura.musicxml
**kern
*part1
*staff1
*I"Bagpipes
*I'Bag
*clefG^2
*k[]
*M3/4
=1
!LO:TX:a:t=Prestissimo
*MM210
!LO:TX:a:t=[quarter]=210
4r
4gg
4ee
=||
4aa
12aaL
12bb
12aaJ
[4gg
=
4gg]
4aa
8ggL
8ffJ
=
4ee
12eeL
12ff
12eeJ
4dd
=
4dd
4aa
4ee
=
4bb
12bbL
12ccc
12bbJ
4aa
=
4aa
4bb
8aaL
8ffJ
=
4ff
12ffL
12gg
12ffJ
[4ee
!!linebreak:original
=
4ee]
4gg
4ee
=||
4aa
12aaL
12bb
12aaJ
[4gg
=
4gg]
4aa
8ggL
8ffJ
=
4ee
12eeL
12ff
12eeJ
4dd
=
4dd
4aa
4ee
=
4bb
12bbL
12ccc
12bbJ
4aa
=
4aa
4bb
8aaL
8ffJ
!!linebreak:original
=
4ff
12ffL
12gg
12ffJ
4ee
=||
[2.ee
=
8ee]
8r
4r
4ff
=||
2ff
4dd
=
4gg
4gg
4gg
=
4ff
8eeL
8ddJ
[4cc
=
2cc]
4gg
=
2gg
4ee
=
4aa
4aa
4aa
=
4gg
8ffL
8eeJ
[4dd
=
2dd]
4aa
=
2aa
4ff
!!linebreak:original
=
4bb
4bb
4bb
!!linebreak:original
=
4aa
8ggL
8ffJ
[4ee
=
2ee]
4gg
=||
2gg
4ee
=
4aa
4aa
4aa
=
4gg
8ffL
8eeJ
4dd
=
2dd
4aa
=
2aa
4ff
=
4bb
4bb
4bb
=
4aa
8ggL
8ffJ
[4ee
=
2ee]
4gg
=||
2gg
4ee
=
4aa
4aa
4aa
!!linebreak:original
=
4gg
8ffL
8eeJ
4dd
=
2dd
4aa
=
2aa
4ff
=
4bb
4bb
4bb
=
4aa
8ggL
8ffJ
[4ee
=
4ee]
4gg
4ee
!!pagebreak:original
=||
4aa
12aaL
12bb
12aaJ
[4gg
=
4gg]
4aa
8ggL
8ffJ
=
4ee
12eeL
12ff
12eeJ
4dd
=
4dd
4aa
4ee
=
4bb
12bbL
12ccc
12bbJ
4aa
=
4aa
4bb
8aaL
8ffJ
=
4ff
12ffL
12gg
12ffJ
[4ee
=
4ee]
4gg
4ee
!!linebreak:original
=||
4aa
12aaL
12bb
12aaJ
[4gg
=
4gg]
4aa
8ggL
8ffJ
=
4ee
12eeL
12ff
12eeJ
4dd
=
4dd
4aa
4ee
=
4bb
12bbL
12ccc
12bbJ
4aa
=
4aa
4bb
8aaL
8ffJ
=
4ff
12ffL
12gg
12ffJ
[4ee
=
4ee]
4gg
4ee
!!linebreak:original
=||
[2.ee
=
8ee]
8r
2r
==
*-
!!!system-decoration: s1,s2
